assets/images/item_5447.svg

<?xml version="1.0" standalone="no"?><!DOCTYPE svg PUBLIC "-//W3C//DTD SVG 1.1//EN" "http://www.w3.org/Graphics/SVG/1.1/DTD/svg11.dtd"><svg xmlns="http://www.w3.org/2000/svg" version="1.1" width="170px" height="36.4px" viewBox="0 -3 170 36.4" style="top:-3px"><desc>Deliver income</desc><defs/><g id="Polygon9605"><path d="m14.3 11.6c0 4.1-2.5 8.2-7.9 8.2c.05-.02-4.5 0-4.5 0V4s4.82.03 4.8 0c5.1 0 7.6 3.7 7.6 7.6zm-1.6.1c0-3.2-2-6.3-6.1-6.3c-.01.04-3.1 0-3.1 0v12.9s2.97.03 3 0c4.1 0 6.2-3.3 6.2-6.6zm5.3 2.8c0 2.8 1.7 4.1 3.7 4.1c1.5 0 3-.7 3.3-2.3h1.5c-.5 2.6-2.7 3.7-4.9 3.7c-2.7 0-5.2-1.8-5.2-5.8c0-4.1 2.6-5.9 5.3-5.9c2.7 0 4.8 1.7 4.8 5.5c.04-.05 0 .7 0 .7c0 0-8.55.01-8.5 0zm0-1.3h7c0-2.3-1.5-3.5-3.4-3.5c-1.7 0-3.4 1.1-3.6 3.5zm12.7 6.6h-1.5v-16h1.5v16zm5-16H34v1.9h1.7V3.8zm-.1 16h-1.5V8.5h1.5v11.3zm7.8 0h-1.6L37.6 8.5h1.6l3.4 9.7L46 8.5h1.6l-4.2 11.3zm6.8-5.3c0 2.8 1.8 4.1 3.7 4.1c1.5 0 3-.7 3.3-2.3h1.5c-.5 2.6-2.7 3.7-4.8 3.7c-2.7 0-5.2-1.8-5.2-5.8c0-4.1 2.5-5.9 5.2-5.9c2.7 0 4.9 1.7 4.9 5.5c-.02-.05 0 .7 0 .7h-8.6zm0-1.3h7c0-2.3-1.4-3.5-3.3-3.5c-1.8 0-3.5 1.1-3.7 3.5zM67 9.8s-.33.03-.3 0c-2.4 0-3.8 1.4-3.8 4c.04 0 0 6 0 6h-1.5V8.5h1.5s.02 2.08 0 2.1c.5-1.5 1.9-2.2 3.6-2.2c.05-.02.5 0 .5 0v1.4zm8.7-6H74v1.9h1.7V3.8zm-.1 16h-1.5V8.5h1.5v11.3zm12.5-7.7v7.7h-1.5s-.02-7.56 0-7.6c0-1.5-.9-2.5-2.5-2.5c-1.9 0-3.6 1.4-3.6 4.2v5.9H79V8.5h1.5v2.1c.7-1.3 1.9-2.3 3.9-2.3c2.2 0 3.7 1.3 3.7 3.8zm7.8 7.9c-3.1 0-5.3-2.3-5.3-5.8c0-3.6 2.1-5.9 5.4-5.9c2.5 0 4.5 1.4 4.7 3.9h-1.5c-.2-1.6-1.6-2.5-3.2-2.5c-2.2 0-3.8 1.7-3.8 4.4c0 2.8 1.5 4.5 3.7 4.5c1.7 0 3.1-1 3.2-2.8h1.6c-.2 2.7-2.3 4.2-4.8 4.2zm6.6-5.8c0-3.7 2.3-5.9 5.4-5.9c3.1 0 5.3 2.2 5.3 5.9c0 3.6-2.2 5.8-5.3 5.8c-3.1 0-5.4-2.2-5.4-5.8zm9.2-.1c0-2.8-1.7-4.4-3.8-4.4c-2.3 0-3.8 1.7-3.8 4.5c0 2.8 1.7 4.4 3.8 4.4c2.2 0 3.8-1.7 3.8-4.5zm4.2-5.6h1.5s-.03 1.87 0 1.9c.6-1.4 1.8-2.1 3.2-2.1c1.7 0 3 .9 3.4 2.3c.5-1.2 1.7-2.3 3.7-2.3c2 0 3.6 1.1 3.6 3.4c.03 0 0 8.1 0 8.1h-1.5v-7.6c0-1.7-1.1-2.5-2.4-2.5c-1.7 0-3.1 1.3-3.1 3.6c.04.03 0 6.5 0 6.5h-1.5s.03-7.56 0-7.6c0-1.7-1-2.5-2.3-2.5c-1.7 0-3.1 1.2-3.1 3.6v6.5h-1.5V8.5zm19.5 6c0 2.8 1.7 4.1 3.7 4.1c1.5 0 3-.7 3.3-2.3h1.5c-.5 2.6-2.7 3.7-4.9 3.7c-2.6 0-5.1-1.8-5.1-5.8c0-4.1 2.5-5.9 5.2-5.9c2.7 0 4.9 1.7 4.9 5.5c-.05-.05 0 .7 0 .7h-8.6zm0-1.3h7c0-2.3-1.5-3.5-3.4-3.5c-1.7 0-3.4 1.1-3.6 3.5z" stroke="none" fill="#000"/></g></svg>

<?xml version="1.0" standalone="no"?><!DOCTYPE svg PUBLIC "-//W3C//DTD SVG 1.1//EN" "http://www.w3.org/Graphics/SVG/1.1/DTD/svg11.dtd"><svg xmlns="http://www.w3.org/2000/svg" version="1.1" width="170px" height="36.4px" viewBox="0 -3 170 36.4" style="top:-3px">  <desc>Deliver income</desc>  <defs/>  <g id="Polygon9605">    <path d="M 14.3 11.6 C 14.3 15.7 11.8 19.8 6.4 19.8 C 6.45 19.78 1.9 19.8 1.9 19.8 L 1.9 4 C 1.9 4 6.72 4.03 6.7 4 C 11.8 4 14.3 7.7 14.3 11.6 Z M 12.7 11.7 C 12.7 8.5 10.7 5.4 6.6 5.4 C 6.59 5.44 3.5 5.4 3.5 5.4 L 3.5 18.3 C 3.5 18.3 6.47 18.33 6.5 18.3 C 10.6 18.3 12.7 15 12.7 11.7 Z M 18 14.5 C 18 17.3 19.7 18.6 21.7 18.6 C 23.2 18.6 24.7 17.9 25 16.3 C 25 16.3 26.5 16.3 26.5 16.3 C 26 18.9 23.8 20 21.6 20 C 18.9 20 16.4 18.2 16.4 14.2 C 16.4 10.1 19 8.3 21.7 8.3 C 24.4 8.3 26.5 10 26.5 13.8 C 26.54 13.75 26.5 14.5 26.5 14.5 C 26.5 14.5 17.95 14.51 18 14.5 Z M 18 13.2 C 18 13.2 25 13.2 25 13.2 C 25 10.9 23.5 9.7 21.6 9.7 C 19.9 9.7 18.2 10.8 18 13.2 Z M 30.7 19.8 L 29.2 19.8 L 29.2 3.8 L 30.7 3.8 L 30.7 19.8 Z M 35.7 3.8 L 34 3.8 L 34 5.7 L 35.7 5.7 L 35.7 3.8 Z M 35.6 19.8 L 34.1 19.8 L 34.1 8.5 L 35.6 8.5 L 35.6 19.8 Z M 43.4 19.8 L 41.8 19.8 L 37.6 8.5 L 39.2 8.5 L 42.6 18.2 L 46 8.5 L 47.6 8.5 L 43.4 19.8 Z M 50.2 14.5 C 50.2 17.3 52 18.6 53.9 18.6 C 55.4 18.6 56.9 17.9 57.2 16.3 C 57.2 16.3 58.7 16.3 58.7 16.3 C 58.2 18.9 56 20 53.9 20 C 51.2 20 48.7 18.2 48.7 14.2 C 48.7 10.1 51.2 8.3 53.9 8.3 C 56.6 8.3 58.8 10 58.8 13.8 C 58.78 13.75 58.8 14.5 58.8 14.5 C 58.8 14.5 50.19 14.51 50.2 14.5 Z M 50.2 13.2 C 50.2 13.2 57.2 13.2 57.2 13.2 C 57.2 10.9 55.8 9.7 53.9 9.7 C 52.1 9.7 50.4 10.8 50.2 13.2 Z M 67 9.8 C 67 9.8 66.67 9.83 66.7 9.8 C 64.3 9.8 62.9 11.2 62.9 13.8 C 62.94 13.8 62.9 19.8 62.9 19.8 L 61.4 19.8 L 61.4 8.5 L 62.9 8.5 C 62.9 8.5 62.92 10.58 62.9 10.6 C 63.4 9.1 64.8 8.4 66.5 8.4 C 66.55 8.38 67 8.4 67 8.4 L 67 9.8 Z M 75.7 3.8 L 74 3.8 L 74 5.7 L 75.7 5.7 L 75.7 3.8 Z M 75.6 19.8 L 74.1 19.8 L 74.1 8.5 L 75.6 8.5 L 75.6 19.8 Z M 88.1 12.1 C 88.11 12.05 88.1 19.8 88.1 19.8 L 86.6 19.8 C 86.6 19.8 86.58 12.24 86.6 12.2 C 86.6 10.7 85.7 9.7 84.1 9.7 C 82.2 9.7 80.5 11.1 80.5 13.9 C 80.49 13.86 80.5 19.8 80.5 19.8 L 79 19.8 L 79 8.5 L 80.5 8.5 C 80.5 8.5 80.49 10.6 80.5 10.6 C 81.2 9.3 82.4 8.3 84.4 8.3 C 86.6 8.3 88.1 9.6 88.1 12.1 Z M 95.9 20 C 92.8 20 90.6 17.7 90.6 14.2 C 90.6 10.6 92.7 8.3 96 8.3 C 98.5 8.3 100.5 9.7 100.7 12.2 C 100.7 12.2 99.2 12.2 99.2 12.2 C 99 10.6 97.6 9.7 96 9.7 C 93.8 9.7 92.2 11.4 92.2 14.1 C 92.2 16.9 93.7 18.6 95.9 18.6 C 97.6 18.6 99 17.6 99.1 15.8 C 99.1 15.8 100.7 15.8 100.7 15.8 C 100.5 18.5 98.4 20 95.9 20 Z M 102.5 14.2 C 102.5 10.5 104.8 8.3 107.9 8.3 C 111 8.3 113.2 10.5 113.2 14.2 C 113.2 17.8 111 20 107.9 20 C 104.8 20 102.5 17.8 102.5 14.2 Z M 111.7 14.1 C 111.7 11.3 110 9.7 107.9 9.7 C 105.6 9.7 104.1 11.4 104.1 14.2 C 104.1 17 105.8 18.6 107.9 18.6 C 110.1 18.6 111.7 16.9 111.7 14.1 Z M 115.9 8.5 L 117.4 8.5 C 117.4 8.5 117.37 10.37 117.4 10.4 C 118 9 119.2 8.3 120.6 8.3 C 122.3 8.3 123.6 9.2 124 10.6 C 124.5 9.4 125.7 8.3 127.7 8.3 C 129.7 8.3 131.3 9.4 131.3 11.7 C 131.33 11.7 131.3 19.8 131.3 19.8 L 129.8 19.8 C 129.8 19.8 129.8 12.24 129.8 12.2 C 129.8 10.5 128.7 9.7 127.4 9.7 C 125.7 9.7 124.3 11 124.3 13.3 C 124.34 13.33 124.3 19.8 124.3 19.8 L 122.8 19.8 C 122.8 19.8 122.83 12.24 122.8 12.2 C 122.8 10.5 121.8 9.7 120.5 9.7 C 118.8 9.7 117.4 10.9 117.4 13.3 C 117.39 13.33 117.4 19.8 117.4 19.8 L 115.9 19.8 L 115.9 8.5 Z M 135.4 14.5 C 135.4 17.3 137.1 18.6 139.1 18.6 C 140.6 18.6 142.1 17.9 142.4 16.3 C 142.4 16.3 143.9 16.3 143.9 16.3 C 143.4 18.9 141.2 20 139 20 C 136.4 20 133.9 18.2 133.9 14.2 C 133.9 10.1 136.4 8.3 139.1 8.3 C 141.8 8.3 144 10 144 13.8 C 143.95 13.75 144 14.5 144 14.5 C 144 14.5 135.36 14.51 135.4 14.5 Z M 135.4 13.2 C 135.4 13.2 142.4 13.2 142.4 13.2 C 142.4 10.9 140.9 9.7 139 9.7 C 137.3 9.7 135.6 10.8 135.4 13.2 Z " stroke="none" fill="#000"/>  </g></svg>
